SVG_Azure_All/Application Return To Work.svg

<?xml version="1.0" encoding="UTF-8" standalone="no"?>
<!-- Generated by Microsoft Visio, SVG Export Application Return To Work.svg Page-1 -->

<svg
   xmlns:dc="http://purl.org/dc/elements/1.1/"
   xmlns:cc="http://creativecommons.org/ns#"
   xmlns:rdf="http://www.w3.org/1999/02/22-rdf-syntax-ns#"
   xmlns:svg="http://www.w3.org/2000/svg"
   xmlns="http://www.w3.org/2000/svg"
   xmlns:sodipodi="http://sodipodi.sourceforge.net/DTD/sodipodi-0.dtd"
   xmlns:inkscape="http://www.inkscape.org/namespaces/inkscape"
   width="0.6982767in"
   height="0.66415739in"
   viewBox="0 0 50.275936 47.819157"
   xml:space="preserve"
   class="st10"
   version="1.1"
   id="svg98"
   sodipodi:docname="Application Return To Work.svg"
   style="font-size:12px;overflow:visible;color-interpolation-filters:sRGB;fill:none;fill-rule:evenodd;stroke-linecap:square;stroke-miterlimit:3"
   inkscape:version="0.92.5 (2060ec1f9f, 2020-04-08)"><metadata
   id="metadata102"><rdf:RDF><cc:Work
       rdf:about=""><dc:format>image/svg+xml</dc:format><dc:type
         rdf:resource="http://purl.org/dc/dcmitype/StillImage" /></cc:Work></rdf:RDF></metadata><sodipodi:namedview
   pagecolor="#ffffff"
   bordercolor="#666666"
   borderopacity="1"
   objecttolerance="10"
   gridtolerance="10"
   guidetolerance="10"
   inkscape:pageopacity="0"
   inkscape:pageshadow="2"
   inkscape:window-width="640"
   inkscape:window-height="480"
   id="namedview100"
   showgrid="false"
   inkscape:zoom="2.0056402"
   inkscape:cx="29.488254"
   inkscape:cy="12.986727"
   inkscape:window-x="0"
   inkscape:window-y="0"
   inkscape:window-maximized="0"
   inkscape:current-layer="svg98" />
	<style
   type="text/css"
   id="style2">
	<![CDATA[
		.st1 {fill:url(#grad0-7);stroke:none;stroke-linecap:butt;stroke-width:6.04606}
		.st2 {fill:#000000;fill-opacity:0.24;stroke:none;stroke-linecap:butt;stroke-width:6.04606}
		.st3 {fill:#000000;fill-opacity:0.32;stroke:none;stroke-linecap:butt;stroke-width:6.04606}
		.st4 {fill:url(#grad0-15);stroke:none;stroke-linecap:butt;stroke-width:6.04606}
		.st5 {fill:url(#grad0-23);stroke:none;stroke-linecap:butt;stroke-width:6.04606}
		.st6 {fill:#61e4fe;stroke:none;stroke-linecap:butt;stroke-width:6.04606}
		.st7 {fill:#49d1e9;stroke:none;stroke-linecap:butt;stroke-width:6.04606}
		.st8 {fill:#2fbed7;stroke:none;stroke-linecap:butt;stroke-width:6.04606}
		.st9 {fill:#26acc6;stroke:none;stroke-linecap:butt;stroke-width:6.04606}
		.st10 {fill:none;fill-rule:evenodd;font-size:12px;overflow:visible;stroke-linecap:square;stroke-miterlimit:3}
	]]>
	</style>

	<defs
   id="Patterns_And_Gradients">
		<linearGradient
   id="grad0-7"
   x1="0"
   y1="36.786984"
   x2="20.886694"
   y2="36.786984"
   gradientTransform="scale(0.65352611,1.5301608)"
   gradientUnits="userSpaceOnUse">
			<stop
   offset="0"
   stop-color="#2a6980"
   stop-opacity="1"
   id="stop4" />
			<stop
   offset="1"
   stop-color="#0b3239"
   stop-opacity="1"
   id="stop6" />
		</linearGradient>
		<linearGradient
   id="grad0-15"
   x1="0"
   y1="40.528405"
   x2="37.837759"
   y2="40.528405"
   gradientTransform="scale(0.88800185,1.1261238)"
   gradientUnits="userSpaceOnUse">
			<stop
   offset="0"
   stop-color="#007991"
   stop-opacity="1"
   id="stop9" />
			<stop
   offset="1"
   stop-color="#36a0b5"
   stop-opacity="1"
   id="stop11" />
		</linearGradient>
		<linearGradient
   id="grad0-23"
   x1="6.7791657"
   y1="50.011141"
   x2="39.975832"
   y2="50.011141"
   gradientTransform="scale(0.94682206,1.0561647)"
   gradientUnits="userSpaceOnUse">
			<stop
   offset="0"
   stop-color="#8aecff"
   stop-opacity="1"
   id="stop14" />
			<stop
   offset="1"
   stop-color="#caf7ff"
   stop-opacity="1"
   id="stop16" />
		</linearGradient>
	</defs>
	<g
   id="g96"
   transform="translate(-12.087954,-6.0462744)">
		<title
   id="title20">Page-1</title>
		<g
   id="group9399-1"
   transform="translate(5.66929,-34.0157)">
			<title
   id="title22">Application Return To Work</title>
			<g
   id="group9400-2">
				<title
   id="title24">g113</title>
				<g
   id="group9401-3">
					<title
   id="title26">g111</title>
					<g
   id="shape9402-4"
   transform="translate(43.0446,-5.57356)">
						<title
   id="title28">path75</title>
						<path
   d="M 13.65,60.55 0,56.29 v 31.96 h 13.65 z"
   class="st1"
   id="path30"
   inkscape:connector-curvature="0"
   style="fill:url(#grad0-7);stroke:none;stroke-width:6.04606009;stroke-linecap:butt" />
					</g>
					<g
   id="shape9403-8"
   transform="translate(9.4488,-5.36049)">
						<title
   id="title33">path79</title>
						<path
   d="M 0,45.64 H 33.6 V 88.25 H 15.75 C 7.05,88.25 0,81.1 0,72.27 Z"
   class="st2"
   id="path35"
   inkscape:connector-curvature="0"
   style="fill:#000000;fill-opacity:0.23999999;stroke:none;stroke-width:6.04606009;stroke-linecap:butt" />
					</g>
					<g
   id="shape9404-10"
   transform="translate(9.4488,-4.50818)">
						<title
   id="title38">path83</title>
						<path
   d="M 0,45.64 H 33.6 V 88.25 H 15.75 C 7.05,88.25 0,81.1 0,72.27 Z"
   class="st3"
   id="path40"
   inkscape:connector-curvature="0"
   style="fill:#000000;fill-opacity:0.31999996;stroke:none;stroke-width:6.04606009;stroke-linecap:butt" />
					</g>
					<g
   id="shape9405-12"
   transform="translate(9.4488,-5.57356)">
						<title
   id="title43">path87</title>
						<path
   d="M 0,45.64 H 33.6 V 88.25 H 15.75 C 7.05,88.25 0,81.1 0,72.27 Z"
   class="st4"
   id="path45"
   inkscape:connector-curvature="0"
   style="fill:url(#grad0-15);stroke:none;stroke-width:6.04606009;stroke-linecap:butt" />
					</g>
					<g
   id="shape9406-16"
   transform="translate(0,-0.852255)">
						<title
   id="title48">path89</title>
						<path
   d="M 26.25,83.74 C 14.7,83.74 0,83.72 9.43,52.82 c 0,13.08 5.27,14.92 16.82,14.92 v -3.09 c 0,-0.98 1.18,-1.44 1.83,-0.72 l 9.23,10.37 c 0.72,0.81 0.72,2.05 0,2.86 l -9.23,10.37 c -0.65,0.72 -1.83,0.26 -1.83,-0.72 z"
   class="st2"
   id="path50"
   inkscape:connector-curvature="0"
   style="fill:#000000;fill-opacity:0.23999999;stroke:none;stroke-width:6.04606009;stroke-linecap:butt" />
					</g>
					<g
   id="shape9407-18">
						<title
   id="title53">path93</title>
						<path
   d="M 26.25,83.74 C 14.7,83.74 0,83.72 9.43,52.82 c 0,13.08 5.27,14.92 16.82,14.92 v -3.09 c 0,-0.98 1.18,-1.44 1.83,-0.72 l 9.23,10.37 c 0.72,0.81 0.72,2.05 0,2.86 l -9.23,10.37 c -0.65,0.72 -1.83,0.26 -1.83,-0.72 z"
   class="st3"
   id="path55"
   inkscape:connector-curvature="0"
   style="fill:#000000;fill-opacity:0.31999996;stroke:none;stroke-width:6.04606009;stroke-linecap:butt" />
					</g>
					<g
   id="shape9408-20"
   transform="translate(0,-1.06539)">
						<title
   id="title58">path97</title>
						<path
   d="M 26.25,83.74 C 14.7,83.74 0,83.72 9.43,52.82 c 0,13.08 5.27,14.92 16.82,14.92 v -3.09 c 0,-0.98 1.18,-1.44 1.83,-0.72 l 9.23,10.37 c 0.72,0.81 0.72,2.05 0,2.86 l -9.23,10.37 c -0.65,0.72 -1.83,0.26 -1.83,-0.72 z"
   class="st5"
   id="path60"
   inkscape:connector-curvature="0"
   style="fill:url(#grad0-23);stroke:none;stroke-width:6.04606009;stroke-linecap:butt" />
					</g>
					<g
   id="shape9409-24"
   transform="translate(34.6456,-37.5351)">
						<title
   id="title63">rect99</title>
						<rect
   x="0"
   y="77.596901"
   width="8.3989601"
   height="10.6539"
   class="st6"
   id="rect65"
   style="fill:#61e4fe;stroke:none;stroke-width:6.04606009;stroke-linecap:butt" />
					</g>
					<g
   id="shape9410-26"
   transform="translate(26.2467,-37.5351)">
						<title
   id="title68">rect101</title>
						<rect
   x="0"
   y="77.596901"
   width="8.3989601"
   height="10.6539"
   class="st7"
   id="rect70"
   style="fill:#49d1e9;stroke:none;stroke-width:6.04606009;stroke-linecap:butt" />
					</g>
					<g
   id="shape9411-28"
   transform="translate(34.6456,-26.8813)">
						<title
   id="title73">path103</title>
						<rect
   x="0"
   y="77.596901"
   width="8.3989601"
   height="10.6539"
   class="st8"
   id="rect75"
   style="fill:#2fbed7;stroke:none;stroke-width:6.04606009;stroke-linecap:butt" />
					</g>
					<g
   id="shape9412-30"
   transform="translate(17.8477,-37.5351)">
						<title
   id="title78">path105</title>
						<rect
   x="0"
   y="77.596901"
   width="8.3989601"
   height="10.6539"
   class="st8"
   id="rect80"
   style="fill:#2fbed7;stroke:none;stroke-width:6.04606009;stroke-linecap:butt" />
					</g>
					<g
   id="shape9413-32"
   transform="translate(26.2467,-26.8813)">
						<title
   id="title83">path107</title>
						<path
   d="M 0,77.6 H 8.4 V 88.25 H 2.1 C 0.94,88.25 0,87.3 0,86.12 Z"
   class="st9"
   id="path85"
   inkscape:connector-curvature="0"
   style="fill:#26acc6;stroke:none;stroke-width:6.04606009;stroke-linecap:butt" />
					</g>
					<g
   id="shape9414-34"
   transform="translate(9.4488,-37.5351)">
						<title
   id="title88">path109</title>
						<rect
   x="0"
   y="77.596901"
   width="8.3989401"
   height="10.6539"
   class="st9"
   id="rect90"
   style="fill:#26acc6;stroke:none;stroke-width:6.04606009;stroke-linecap:butt" />
					</g>
				</g>
			</g>
		</g>
	</g>
</svg>

<?xml version="1.0" encoding="UTF-8" standalone="no"?>
<!DOCTYPE svg PUBLIC "-//W3C//DTD SVG 1.1//EN" "http://www.w3.org/Graphics/SVG/1.1/DTD/svg11.dtd">
<!-- Generated by Microsoft Visio, SVG Export Application Return To Work.svg Page-1 -->
<svg xmlns="http://www.w3.org/2000/svg" xmlns:xlink="http://www.w3.org/1999/xlink" xmlns:ev="http://www.w3.org/2001/xml-events"
		width="0.950115in" height="1.22571in" viewBox="0 0 68.4083 88.2508" xml:space="preserve" color-interpolation-filters="sRGB"
		class="st10">
	<style type="text/css">
	<![CDATA[
		.st1 {fill:url(#grad0-7);stroke:none;stroke-linecap:butt;stroke-width:6.04606}
		.st2 {fill:#000000;fill-opacity:0.24;stroke:none;stroke-linecap:butt;stroke-width:6.04606}
		.st3 {fill:#000000;fill-opacity:0.32;stroke:none;stroke-linecap:butt;stroke-width:6.04606}
		.st4 {fill:url(#grad0-15);stroke:none;stroke-linecap:butt;stroke-width:6.04606}
		.st5 {fill:url(#grad0-23);stroke:none;stroke-linecap:butt;stroke-width:6.04606}
		.st6 {fill:#61e4fe;stroke:none;stroke-linecap:butt;stroke-width:6.04606}
		.st7 {fill:#49d1e9;stroke:none;stroke-linecap:butt;stroke-width:6.04606}
		.st8 {fill:#2fbed7;stroke:none;stroke-linecap:butt;stroke-width:6.04606}
		.st9 {fill:#26acc6;stroke:none;stroke-linecap:butt;stroke-width:6.04606}
		.st10 {fill:none;fill-rule:evenodd;font-size:12px;overflow:visible;stroke-linecap:square;stroke-miterlimit:3}
	]]>
	</style>

	<defs id="Patterns_And_Gradients">
		<linearGradient id="grad0-7" x1="0" y1="0" x2="1" y2="0" gradientTransform="rotate(92.793876521299 0.5 0.5)">
			<stop offset="0" stop-color="#2a6980" stop-opacity="1"/>
			<stop offset="1" stop-color="#0b3239" stop-opacity="1"/>
		</linearGradient>
		<linearGradient id="grad0-15" x1="0" y1="0" x2="1" y2="0" gradientTransform="rotate(-100.01322522227 0.5 0.5)">
			<stop offset="0" stop-color="#007991" stop-opacity="1"/>
			<stop offset="1" stop-color="#36a0b5" stop-opacity="1"/>
		</linearGradient>
		<linearGradient id="grad0-23" x1="0" y1="0" x2="1" y2="0" gradientTransform="rotate(-109.04428087392 0.5 0.5)">
			<stop offset="0" stop-color="#8aecff" stop-opacity="1"/>
			<stop offset="1" stop-color="#caf7ff" stop-opacity="1"/>
		</linearGradient>
	</defs>
	<g>
		<title>Page-1</title>
		<g id="group9194-1" transform="translate(5.66929,-34.0157)">
			<title>Application Return To Work</title>
			<g id="group9195-2">
				<title>g113</title>
				<g id="group9196-3">
					<title>g111</title>
					<g id="shape9197-4" transform="translate(43.0446,-5.57356)">
						<title>path75</title>
						<path d="M13.65 60.55 L0 56.29 L0 88.25 L13.65 88.25 L13.65 60.55 Z" class="st1"/>
					</g>
					<g id="shape9198-8" transform="translate(9.4488,-5.36049)">
						<title>path79</title>
						<path d="M0 45.64 L33.6 45.64 L33.6 88.25 L15.75 88.25 C7.05 88.25 0 81.1 0 72.27 L0 45.64 Z" class="st2"/>
					</g>
					<g id="shape9199-10" transform="translate(9.4488,-4.50818)">
						<title>path83</title>
						<path d="M0 45.64 L33.6 45.64 L33.6 88.25 L15.75 88.25 C7.05 88.25 0 81.1 0 72.27 L0 45.64 Z" class="st3"/>
					</g>
					<g id="shape9200-12" transform="translate(9.4488,-5.57356)">
						<title>path87</title>
						<path d="M0 45.64 L33.6 45.64 L33.6 88.25 L15.75 88.25 C7.05 88.25 0 81.1 0 72.27 L0 45.64 Z" class="st4"/>
					</g>
					<g id="shape9201-16" transform="translate(0,-0.852255)">
						<title>path89</title>
						<path d="M26.25 83.74 C14.7 83.74 0 83.72 9.43 52.82 C9.43 65.9 14.7 67.74 26.25 67.74 L26.25 64.65 C26.25
									 63.67 27.43 63.21 28.08 63.93 L37.31 74.3 C38.03 75.11 38.03 76.35 37.31 77.16 L28.08 87.53
									 C27.43 88.25 26.25 87.79 26.25 86.81 L26.25 83.74 Z" class="st2"/>
					</g>
					<g id="shape9202-18">
						<title>path93</title>
						<path d="M26.25 83.74 C14.7 83.74 0 83.72 9.43 52.82 C9.43 65.9 14.7 67.74 26.25 67.74 L26.25 64.65 C26.25
									 63.67 27.43 63.21 28.08 63.93 L37.31 74.3 C38.03 75.11 38.03 76.35 37.31 77.16 L28.08 87.53
									 C27.43 88.25 26.25 87.79 26.25 86.81 L26.25 83.74 Z" class="st3"/>
					</g>
					<g id="shape9203-20" transform="translate(0,-1.06539)">
						<title>path97</title>
						<path d="M26.25 83.74 C14.7 83.74 0 83.72 9.43 52.82 C9.43 65.9 14.7 67.74 26.25 67.74 L26.25 64.65 C26.25
									 63.67 27.43 63.21 28.08 63.93 L37.31 74.3 C38.03 75.11 38.03 76.35 37.31 77.16 L28.08 87.53
									 C27.43 88.25 26.25 87.79 26.25 86.81 L26.25 83.74 Z" class="st5"/>
					</g>
					<g id="shape9204-24" transform="translate(34.6456,-37.5351)">
						<title>rect99</title>
						<rect x="0" y="77.5969" width="8.39896" height="10.6539" class="st6"/>
					</g>
					<g id="shape9205-26" transform="translate(26.2467,-37.5351)">
						<title>rect101</title>
						<rect x="0" y="77.5969" width="8.39896" height="10.6539" class="st7"/>
					</g>
					<g id="shape9206-28" transform="translate(34.6456,-26.8813)">
						<title>path103</title>
						<rect x="0" y="77.5969" width="8.39896" height="10.6539" class="st8"/>
					</g>
					<g id="shape9207-30" transform="translate(17.8477,-37.5351)">
						<title>path105</title>
						<rect x="0" y="77.5969" width="8.39896" height="10.6539" class="st8"/>
					</g>
					<g id="shape9208-32" transform="translate(26.2467,-26.8813)">
						<title>path107</title>
						<path d="M0 77.6 L8.4 77.6 L8.4 88.25 L2.1 88.25 C0.94 88.25 0 87.3 0 86.12 L0 77.6 Z" class="st9"/>
					</g>
					<g id="shape9209-34" transform="translate(9.4488,-37.5351)">
						<title>path109</title>
						<rect x="0" y="77.5969" width="8.39894" height="10.6539" class="st9"/>
					</g>
				</g>
			</g>
		</g>
	</g>
</svg>
